!!!COM: Frescobaldi, Girolamo
!!!CDT: 1583///-1643
!!!ONM: No. 23
!!!OTL: No. 23: Canzon Seconda &agrave; 3. Due Bassi e Canto
!!!OPR: Canzoni da sonare a una, due, tre et quattro, libro primo
!!!PPP: Venezia
!!!PDT: 1634
!!!URL: http://icking-music-archive.org/ByComposer/Frescobaldi.html
!!!ONB: Andrea Friggi, ed.
**kern	**kern	**kern	**kern
!Basso ad Organo	!Basso Secondo	!Basso Primo	!Canto
*staff4	*staff3	*staff2	*staff1
*clefF4	*clefF4	*clefF4	*clefG2
*k[]	*k[]	*k[]	*k[]
*met(C)	*met(C)	*met(C)	*met(C)
*M4/4	*M4/4	*M4/4	*M4/4
*MM120	*MM120	*MM120	*MM120
=1-	=1-	=1-	=1-
1D	1r	1D	1r
=2	=2	=2	=2
2.F\	1r	2.F\	1r
4E\	.	4E\	.
=3	=3	=3	=3
2D\	1r	2D\	1r
2C#/	.	2C#/	.
=4	=4	=4	=4
2D\	1r	2D\	1r
2AA/	.	2AA/	.
=5	=5	=5	=5
1BB-	1r	1BB-	1r
=6	=6	=6	=6
1AA	1r	1AA	1r
=7	=7	=7	=7
1D	1D	1D	1r
=8	=8	=8	=8
2.B-\	2.B-\	1r	1r
4A\	4A\	.	.
=9	=9	=9	=9
2G\	2G\	1r	2r
2F#\	2F#\	.	[2dd\
=10	=10	=10	=10
2G\	2G\	1r	2dd\]
2D\	2D\	.	[2ff\
=11	=11	=11	=11
1F	1F	1r	4ff\]
.	.	.	4ee\
.	.	.	[2dd\
=12	=12	=12	=12
1E	1E	1r	2dd\]
.	.	.	2cc#\
=13	=13	=13	=13
2D\	2D\	1r	2dd\
2C#/	2C#/	.	2ee\
=14	=14	=14	=14
1D	1D	1r	1a
=15	=15	=15	=15
*M3/2	*M3/2	*M3/2	*M3/2
2GG/	2GG/	2.G\	2.b\
2BB/	2BB/	.	.
.	.	4G\	4b\
2C/	2C/	2C/	2ee\
=16	=16	=16	=16
1.GG	1.GG	1.G	1.dd
=17	=17	=17	=17
2.D\	2D\	2.D\	1.r
.	2F\	.	.
4C/	.	4C/	.
2BB-/	4G\	2BB-/	.
.	4D\	.	.
=18	=18	=18	=18
1AA	1.A	1.AA	2.aa\
.	.	.	8gg\L
.	.	.	8ff\J
2AA/	.	.	4ee\
.	.	.	4dd\
=19	=19	=19	=19
1A	1.r	2.A\	4cc\
.	.	.	4a/
.	.	.	4cc\
.	.	8G\L	4dd\
.	.	8F\J	.
2E\	.	4E\	4ee\
.	.	4D\	4ff\
=20	=20	=20	=20
2.C/	4r	1C	4.gg\
.	4c\	.	.
.	.	.	8ee\
.	4B\	.	4dd\
4C/	4A\	.	4cc\
4G\	4G\	2r	4b\
4A\	4A\	.	4cc\
=21	=21	=21	=21
1E	1E	4r	1g
.	.	4E\	.
.	.	4D\	.
.	.	4C/	.
2BB/	2r	4BB/	2gg\
.	.	4C/	.
=22	=22	=22	=22
1GG	2.G\	4GG/	4gg\
.	.	4AA/	8ff\L
.	.	.	8ee\J
.	.	4BB/	4dd\
.	8F\L	4C/	4ee\
.	8E\J	.	.
2D\	4D\	2D\	4ff\
.	4E\	.	4gg\
=23	=23	=23	=23
1F#	1F#	1.r	2.aa\
.	.	.	4a/
2G\	2G\	.	4b\
.	.	.	4cc\
=24	=24	=24	=24
1D	1D	2.D\	4dd\
.	.	.	8cc\L
.	.	.	8b\J
.	.	.	4a/
.	.	8C/L	4b\
.	.	8BB/J	.
2AA/	2r	4AA/	4cc\
.	.	4BB/	4dd\
=25	=25	=25	=25
1C	2.C/	4C/	2.ee\
.	.	4D\	.
.	.	4E\	.
.	8BB/L	4F\	8dd\L
.	8AA/J	.	8cc\J
2GG/	2GG/	2G\	4b\
.	.	.	4cc\
=26	=26	=26	=26
1D	1D	4D\	2.dd\
.	.	4E\	.
.	.	4F\	.
.	.	4G\	4dd\
2AA/	2AA/	2A\	2cc#\
=27	=27	=27	=27
*met(C)	*met(C)	*met(C)	*met(C)
*M4/4	*M4/4	*M4/4	*M4/4
1D	1D	1D	1dd
=28	=28	=28	=28
2G\	1r	1r	2r
2F#\	.	.	[2dd\
=29	=29	=29	=29
1G	1r	1r	4dd\]
.	.	.	4dd\
.	.	.	2ee\
=30	=30	=30	=30
2D\	1r	1r	2ff\
2F\	.	.	2aa\
=31	=31	=31	=31
1BB	1r	1r	2gg\
.	.	.	[2ff\
=32	=32	=32	=32
1C	1r	1r	2ff\]
.	.	.	[2ee\
=33	=33	=33	=33
1F	1r	1r	2ee\]
.	.	.	4dd\
.	.	.	4cc\
=34	=34	=34	=34
1D	1r	1r	2dd\
.	.	.	4a/
.	.	.	4b\
=35	=35	=35	=35
4AA/	1r	1r	4cc\
4BB/	.	.	4dd\
4C/	.	.	[2ee\
4D\	.	.	.
=36	=36	=36	=36
2E\	1r	1r	2ee\]
2F\	.	.	[2dd\
=37	=37	=37	=37
1E	1r	1r	4dd\]
.	.	.	4cc\
.	.	.	2b\
=38	=38	=38	=38
*	*	*	*MM164
2AA/	1r	2r	1a
4.A\	.	4.A\	.
8B\	.	8B\	.
=39	=39	=39	=39
4c\	1r	4c\	1r
8G\L	.	8G\L	.
8A\J	.	8A\J	.
4B-\	.	4B-\	.
4F\	.	4F\	.
=40	=40	=40	=40
4G\	2r	4G\	1r
4A\	.	4A\	.
2D\	4r	2D\	.
.	4D\	.	.
=41	=41	=41	=41
4C/	4C/	1r	1r
8AA/L	8AA/L	.	.
8C/J	8C/J	.	.
4BB-/	4BB-/	.	.
8GG/L	8GG/L	.	.
8BB-/J	8BB-/J	.	.
=42	=42	=42	=42
4AA/	4AA/	1r	1r
4FF/	4FF/	.	.
4GG/	4GG/	.	.
4AA/	4AA/	.	.
=43	=43	=43	=43
4.D\	2D\	4.D\	4r
.	.	.	4dd\
8E\	.	8E\	.
4F\	2r	4F\	4cc\
8F\L	.	8F\L	8a\L
8F\J	.	8F\J	8cc\J
=44	=44	=44	=44
4G\	1r	4G\	4b-\
4BB-/	.	4BB-/	8g/L
.	.	.	8b-/J
4C/	.	4C/	4a/
4D\	.	4D\	4a/
=45	=45	=45	=45
2GG/	4.G\	2GG/	2g/
.	8A\	.	.
4BB-/	4B-\	2r	4r
8D\L	8D\L	.	4dd\
8E\J	8E\J	.	.
=46	=46	=46	=46
4F\	4F\	1r	4cc\
4C/	4C/	.	8a\L
.	.	.	8cc\J
4D\	4D\	.	4.b\
4E\	4E\	.	.
.	.	.	8b\
=47	=47	=47	=47
4AA/	2AA/	4r	8a\L
.	.	.	8b\
4A\	.	4A\	8cc\
.	.	.	8dd\J
4G\	2r	4G\	2b\
8E\L	.	8E\L	.
8G\J	.	8G\J	.
=48	=48	=48	=48
4F\	1r	4F\	2r
8D\L	.	8D\L	.
8F\J	.	8F\J	.
4C/	.	4C/	4r
4AA/	.	4AA/	4aa\
=49	=49	=49	=49
4BB-/	1r	4BB-/	4ff\
4FF/	.	4FF/	8dd\L
.	.	.	8ff\J
4GG/	.	4GG/	4ee\
4AA/	.	4AA/	4ee\
=50	=50	=50	=50
2.D\	2r	2D\	2dd\
.	4r	2r	4.a/
4d\	4d\	.	.
.	.	.	8b\
=51	=51	=51	=51
4c\	4c\	1r	4cc\
8A\L	8A\L	.	8cc\L
8c\J	8c\J	.	8cc\J
4B-\	4B-\	.	2dd\
4G\	8G\L	.	.
.	8B-\J	.	.
=52	=52	=52	=52
4.F\	4.F\	1r	2r
8E\	8E\	.	.
4F\	4F\	.	4r
4D\	4D\	.	4aa\
=53	=53	=53	=53
4E\	4E\	1r	4gg\
4C/	4C/	.	8ee\L
.	.	.	8gg\J
4D\	4D\	.	4ff\
4E\	4E\	.	8ee\L
.	.	.	8dd\J
=54	=54	=54	=54
2AA/	2AA/	4.AA/	8cc\L
.	.	.	8a\
.	.	.	8cc\
.	.	8BB/	8dd\J
2C/	2r	4C/	2ee\
.	.	8C/L	.
.	.	8C/J	.
=55	=55	=55	=55
4.D\	4.D\	2D\	4r
.	.	.	4dd\
8E\	8E\	.	.
4F\	4F\	2r	4cc\
8F\L	8F\L	.	8a\L
8F\J	8F\J	.	8cc\J
=56	=56	=56	=56
2G\	2G\	4r	4b\
.	.	4G\	8g/L
.	.	.	8b/J
4F\	2r	4F\	2a/
8D\L	.	8D\L	.
8F\J	.	8F\J	.
=57	=57	=57	=57
4E\	2r	4E\	2r
4C/	.	4C/	.
2D\	4r	2D\	4.a/
.	4D\	.	.
.	.	.	8b\
=58	=58	=58	=58
4C/	4C/	1r	4cc\
8AA/L	8AA/L	.	8cc\L
8C/J	8C/J	.	8cc\J
4FF/	4FF/	.	8a\L
.	.	.	8ff\
4GG/	4GG/	.	8ee\
.	.	.	8dd\J
=59	=59	=59	=59
1AA	1AA	1A	8cc#\L
.	.	.	8aa\
.	.	.	8gg\
.	.	.	8ff\J
.	.	.	2ee\
=60	=60	=60	=60
1D	1D	1D	1dd
=61	=61	=61	=61
*M2/2	*M2/2	*M2/2	*M2/2
4.G\	2.r	4.G\	2.r
8A\	.	8A\	.
4B\	.	4B\	.
=62	=62	=62	=62
2c\	2.r	4c\	2.r
.	.	4c\	.
4c\	.	4c\	.
=63	=63	=63	=63
2B-\	2.r	2B-\	4.dd\
.	.	.	8ee\
4B-\	.	4B-\	4ff\
=64	=64	=64	=64
2A\	2.r	2A\	4.cc#\
.	.	.	8ee\L
4AA/	.	4AA/	8dd\
.	.	.	8cc#\J
=65	=65	=65	=65
2D\	2.r	4D\	2dd\
.	.	4D\	.
4E\	.	4E\	4r
=66	=66	=66	=66
2.F\	2.r	4F\	4.a/
.	.	4FF/	.
.	.	.	8b\
.	.	4AA/	4cc\
=67	=67	=67	=67
4BB-/	2.r	4BB-/	4dd\
2C/	.	2C/	4g/
.	.	.	4cc\
=68	=68	=68	=68
2F\	4.F\	2.FF/	2.a/
.	8G\	.	.
4A\	4A\	.	.
=69	=69	=69	=69
4B-\	4B-\	2.r	4r
4D\	4D\	.	4ff\
4E\	4E\	.	4gg\
=70	=70	=70	=70
2F\	4.F\	4r	4aa\
.	.	4A\	4b\
.	8E\	.	.
4D\	4D\	4B\	4dd\
=71	=71	=71	=71
2.C/	2.C/	4c\	4.ee\
.	.	4E\	.
.	.	.	8ee\L
.	.	4F\	8dd\
.	.	.	8cc\J
=72	=72	=72	=72
4G\	2.r	4G\	2b\
4BB/	.	4BB/	.
4C/	.	4C/	4ee\
=73	=73	=73	=73
2D\	2.r	4.D\	2dd\
.	.	8C/	.
4BB-/	.	4BB-/	4dd\
=74	=74	=74	=74
2AA/	2.r	2AA/	2cc#\
4D\	.	4D\	4dd\
=75	=75	=75	=75
2E\	2.r	2E\	4.gg\
.	.	.	8gg\L
4F\	.	4F\	8ff\
.	.	.	8ee\J
=76	=76	=76	=76
2.G\	2.r	2.G\	2dd\
.	.	.	4dd\
=77	=77	=77	=77
2.C/	4r	2C/	2.ee\
.	4r	.	.
.	4C/	4c\	.
=78	=78	=78	=78
2.GG/	2G\	2.G\	2.r
.	4GG/	.	.
=79	=79	=79	=79
2.D\	2.D\	4r	2.r
.	.	4D\	.
.	.	4D\	.
=80	=80	=80	=80
2AA/	2.r	4.A\	4r
.	.	.	4a/
.	.	8B\	.
4C/	.	4c\	4a/
=81	=81	=81	=81
2BB-/	2.r	2B-\	4.dd\
.	.	.	8ee\
4BB-/	.	4B-\	4ff\
=82	=82	=82	=82
2AA/	4r	2.A\	4.cc#\
.	4AA/	.	.
.	.	.	8ee\L
4AA/	4AA/	.	8dd\
.	.	.	8cc#\J
=83	=83	=83	=83
2.D\	4.D\	2.D\	4dd\
.	.	.	4a/
.	8E\	.	.
.	4F\	.	4a/
=84	=84	=84	=84
2.C/	2.C/	4r	4.ee\
.	.	4C/	.
.	.	.	8dd\L
.	.	4c\	8ee\
.	.	.	8ff\J
=85	=85	=85	=85
2GG/	2.GG/	4B\	2.gg\
.	.	4.G\	.
4GG/	.	.	.
.	.	8B\	.
=86	=86	=86	=86
2AA/	2.r	4A\	2.r
.	.	4AA/	.
4C/	.	4C/	.
=87	=87	=87	=87
2.BB/	2.r	4BB/	4r
.	.	4GG/	4dd\
.	.	4BB/	4gg\
=88	=88	=88	=88
2D\	4r	2.D\	4ff\
.	4D\	.	4.dd\
4D\	4d\	.	.
.	.	.	8ff\
=89	=89	=89	=89
4C/	4c\	2.r	4ee\
2AA/	4.A\	.	4cc\
.	.	.	4ee\
.	8c\	.	.
=90	=90	=90	=90
2.GG/	2.G\	4r	4gg\
.	.	4GG/	4dd\
.	.	4G\	4ee\
=91	=91	=91	=91
2.D\	2.D\	4F\	2.ff\
.	.	4.D\	.
.	.	8F\	.
=92	=92	=92	=92
4E\	2.r	4E\	4r
2C/	.	2C/	4g/
.	.	.	4cc\
=93	=93	=93	=93
2.D\	4r	2.D\	4.a/
.	4D\	.	.
.	.	.	16b\LL
.	.	.	16cc\JJ
.	4F\	.	4dd\
=94	=94	=94	=94
2AA/	2A\	2.AA/	2cc#\
4AA/	4A\	.	4cc#\
=95	=95	=95	=95
*met(C)	*met(C)	*met(C)	*met(C)
*M4/4	*M4/4	*M4/4	*M4/4
2F#\	2F#\	1r	2.dd\
2G\	2G\	.	.
.	.	.	4ee\
=96	=96	=96	=96
1D	1D	1r	4ff#\
.	.	.	2gg\
.	.	.	4ff#\
=97	=97	=97	=97
2GG/	1GG	2r	1gg
2G\	.	2G\	.
=98	=98	=98	=98
2.E\	1r	2.E\	1r
8D/L	.	8D/L	.
8C/J	.	8C/J	.
=99	=99	=99	=99
1BB	1r	1BB	2r
.	.	.	2gg\
=100	=100	=100	=100
1C	1r	1C	2.ee\
.	.	.	8dd\L
.	.	.	8cc\J
=101	=101	=101	=101
1GG	1r	1GG	4b\
.	.	.	4cc\
.	.	.	2dd\
=102	=102	=102	=102
*	*	*	*MM164
4C/	4r	1r	2ee\
8C/L	8C/L	.	.
8D/J	8D/J	.	.
4E\	4E\	.	4r
8E\L	8E\L	.	8g/L
8F#\J	8F#\J	.	8a/J
=103	=103	=103	=103
4G\	2G\	4r	4b\
8GG/L	.	8GG/L	8b\L
8AA/J	.	8AA/J	8cc\J
4.BB/	2r	4BB/	8dd\L
.	.	.	8g\J
.	.	8BB/L	4gg\
8C/	.	8C/J	.
=104	=104	=104	=104
2D\	4r	2D\	4.ff\
.	4D\	.	.
.	.	.	8ff\
4C/	4C/	2r	4ee\
4BB/	4BB/	.	4dd\
=105	=105	=105	=105
4AA/	4AA/	2r	4cc\
4GG/	2GG/	.	4b\
2D\	.	4r	2a/
.	4FF#/	8d\L	.
.	.	8c\J	.
=106	=106	=106	=106
2G\	2GG/	4B\	2b\
.	.	8A\L	.
.	.	8G\J	.
4F#\	4r	4F#\	4r
4G\	8G\L	4G\	8g/L
.	8F\J	.	8a/J
=107	=107	=107	=107
4E\	4E\	1r	4b\
8D/L	8D/L	.	8b\L
8C/J	8C/J	.	8cc\J
4BB/	4BB/	.	4dd\
4E\	4E\	.	8b\L
.	.	.	8cc\J
=108	=108	=108	=108
4D\	4D\	2r	4dd\
4C/	4C/	.	4ee\
2G\	2G\	4r	2dd\
.	.	8G\L	.
.	.	8F\J	.
=109	=109	=109	=109
4E\	1r	4E\	2r
8D/L	.	8D/L	.
8C/J	.	8C/J	.
4BB/	.	4BB/	4r
4C/	.	4C/	8ee\L
.	.	.	8ff#\J
=110	=110	=110	=110
4BB/	2r	4BB/	4gg#\
4AA/	.	4AA/	4aa\
2E\	4r	2E\	4ggn\
.	8E\L	.	8gg\L
.	8D\J	.	8ff\J
=111	=111	=111	=111
4C/	4C/	2r	4ee\
8BB/L	8BB/L	.	8dd\L
8AA/J	8AA/J	.	8cc\J
4GG/	4GG/	4r	4b\
4BB/	8r	4BB/	4dd\
.	8D\	.	.
=112	=112	=112	=112
4AA/	8E\L	4AA/	4cc\
.	8F\J	.	.
4GG/	2G\	4GG/	4b\
2D\	.	2D\	2a/
.	4F#\	.	.
=113	=113	=113	=113
2.G\	2G\	1GG	4r
.	.	.	8dd\L
.	.	.	8cc\J
.	2r	.	4b\
8F\L	.	.	8a/L
8E\J	.	.	8g/J
=114	=114	=114	=114
4.D\	4r	1r	4a/
.	8D\L	.	2ff\
8E\	8E\J	.	.
4F\	4F\	.	.
8G\L	8G\L	.	4ee\
8A\J	8A\J	.	.
=115	=115	=115	=115
4B-\	4B-\	2r	4dd\
4G\	4G\	.	8dd\L
.	.	.	8ee\J
2D\	2D\	4r	4ff\
.	.	8D/L	8gg\L
.	.	8C/J	8aa\J
=116	=116	=116	=116
4BB-/	1r	4BB-/	4dd\
8AA/L	.	8AA/L	2gg\
8GG/J	.	8GG/J	.
2D\	.	2D\	.
.	.	.	4ff\
=117	=117	=117	=117
[1AA	4r	[1AA	2ee\
.	8A\L	.	.
.	8G\J	.	.
.	4F\	.	4r
.	8E\L	.	8a/L
.	8D\J	.	8b/J
=118	=118	=118	=118
2AA/]	4E\	2AA/]	4cc#\
.	4AA/	.	8cc#\L
.	.	.	8dd\J
2AA/	2A\	2AA/	2ee\
=119	=119	=119	=119
0D	0D	0D	0ff#
==	==	==	==
*-	*-	*-	*-
!!!ENC: Craig Stuart Sapp
!!!END: 2004/12/14/
